format-paragraph-spacing.svg

<svg fill="currentColor" viewBox="0 0 24 24"><path d="M3 17h18v2H3zM3 2h18v2H3zm0 18h18v2H3zM13 8h2l-3-3-3 3h2v5H9l3 3 3-3h-2z"/></svg>

<svg  viewBox="0 0 24 24" fill="currentColor"><path  d="M3 17H21V19H3V17M3 2H21V4H3V2M3 20H21V22H3V20M13 8H15L12 5L9 8H11V13H9L12 16L15 13H13V8Z"/></svg>
